X:87
T:Listen sweet girl listen
T:\'Eisd mo chaileag \'eisd
R:Slow Air
S:Simon Fraser Collection
N:No.108
O:Scottish
M:6/8
L:1/8
Q:3/8=70
K:D
d2e c2e|c2B e2e|d>ef f3|g2e f2f|d2d e2d|c2B f2f|f^AF F3|e2d f2d|
B2A F2^E|F3 z2c|d2e c<F z/d/|(d2c) c2 z/c/|(c2B) B2^A|B2c f3|
B2A F2^E|(F3 F2)z||

